lib/logo_tmp/nrk-logo-nrk-p13-on-dark.svg

<svg width="73" height="16" viewBox="0 0 73 16" fill="none" xmlns="http://www.w3.org/2000/svg">
<path d="M0 15V1.00129H4.59339V15H0ZM10.8428 3.22926L13.4844 15H8.45737L5.30307 1.00129H8.12254C8.76907 0.992901 9.39641 1.22081 9.88691 1.64214C10.3782 2.0458 10.7158 2.60617 10.8428 3.22926ZM14.1744 15V1.00129H18.7678V15H14.1744ZM22.2372 6.3248C21.7422 6.32963 21.2552 6.20012 20.828 5.95015C20.4064 5.70649 20.0563 5.35631 19.8127 4.93472C19.5624 4.50741 19.4329 4.02024 19.4378 3.52506C19.4321 3.03289 19.5618 2.54863 19.8127 2.12519C20.0589 1.70818 20.4086 1.3618 20.828 1.11963C21.2553 0.86994 21.7423 0.740454 22.2372 0.744968C22.7292 0.739669 23.2133 0.869271 23.6369 1.11963C24.0521 1.36392 24.3981 1.71001 24.6424 2.12519C24.893 2.54875 25.0226 3.03293 25.0172 3.52506C25.0218 4.0202 24.8923 4.50729 24.6424 4.93472C24.4007 5.35446 24.0542 5.70435 23.6369 5.95015C23.2133 6.20099 22.7289 6.33063 22.2366 6.3248H22.2372ZM25.7269 15V1.00129H30.3207V15H25.7269ZM36.136 8.65129C36.1489 8.66487 36.2475 8.82588 36.4317 9.13434C36.6159 9.44279 36.8558 9.83715 37.1513 10.3174C37.447 10.7973 37.759 11.3067 38.0874 11.8454C38.4157 12.384 38.7247 12.8934 39.0143 13.3734C39.3028 13.8534 39.6313 14.3956 40 15H34.9531C34.6375 14.4874 34.3515 14.0241 34.0952 13.61C33.8389 13.196 33.5665 12.749 33.2778 12.2693C32.9884 11.7899 32.7024 11.3233 32.4196 10.8694C32.1368 10.4155 31.8938 10.0179 31.6905 9.67659C31.4863 9.33505 31.3449 9.105 31.2663 8.98648C31.0713 8.69237 30.9559 8.3527 30.9315 8.00066C30.951 7.66278 31.0597 7.33616 31.2466 7.05398C31.3254 6.92254 31.47 6.68919 31.6803 6.35401C31.8906 6.01883 32.137 5.62125 32.4196 5.1612C32.7021 4.70115 32.9882 4.23122 33.2778 3.75146C33.5674 3.27169 33.8398 2.82146 34.0952 2.40084C34.3519 1.98066 34.6379 1.51404 34.9531 1.00097H40L36.0962 7.36943C35.9754 7.55851 35.9073 7.77642 35.8991 8.00066C35.9121 8.23606 35.9942 8.46239 36.1353 8.65129H36.136Z" fill="white"/>
<path d="M54.8356 2.81325C54.5933 2.43946 54.2822 2.115 53.9189 1.8571C53.514 1.57348 53.0642 1.36018 52.5883 1.22622C52.0106 1.06677 51.4131 0.990555 50.8139 0.999849H45.3334V14.997H47.4034V9.96988H50.9716C51.7771 9.98235 52.5719 9.78519 53.2782 9.3978C53.9552 9.02303 54.5174 8.47118 54.9046 7.80131C55.3198 7.06194 55.5276 6.22414 55.5059 5.37645C55.5077 4.91836 55.4548 4.46169 55.3482 4.01616C55.2459 3.58933 55.0726 3.18271 54.8356 2.81325ZM53.0023 7.06202C52.7372 7.4776 52.3472 7.79849 51.8884 7.97871C51.3315 8.18945 50.7389 8.28989 50.1436 8.27443H47.4034V2.71535H50.4197C50.9958 2.69351 51.5693 2.80482 52.0954 3.04063C52.514 3.24288 52.8562 3.57473 53.0713 3.98692C53.2991 4.44924 53.4107 4.96011 53.3965 5.47532C53.4192 6.03099 53.2824 6.58157 53.0023 7.06202Z" fill="#FFA90A"/>
<path d="M59.7147 1.46313C59.4321 1.61427 59.1562 1.75557 58.887 1.887C58.6178 2.01842 58.345 2.14984 58.0685 2.28127C57.7927 2.41269 57.5101 2.53097 57.2208 2.63611C56.9314 2.74125 56.6227 2.84642 56.2946 2.95157L56.7279 4.62727C57.1222 4.50899 57.4804 4.39068 57.8024 4.27239C58.1177 4.15678 58.427 4.02519 58.729 3.87812C59.0249 3.73355 59.3206 3.57585 59.6161 3.405L59.6263 3.39906V14.9977H61.6762V1.00047H60.612C60.2963 1.15731 59.9972 1.31154 59.7147 1.46313Z" fill="#FFA90A"/>
<path d="M72.4205 9.75269C72.2838 9.35909 72.0692 8.99705 71.7897 8.68812C71.4991 8.37577 71.1465 8.12745 70.7546 7.95902C70.3057 7.76565 69.8308 7.63943 69.3451 7.58444V7.52496C69.9347 7.33762 70.4833 7.03989 70.9616 6.64766C71.3885 6.29766 71.7404 5.86536 71.9966 5.37645C72.2387 4.90722 72.3639 4.38644 72.3614 3.85845C72.3702 3.41018 72.2686 2.96661 72.0656 2.56682C71.8576 2.18035 71.5602 1.84922 71.1982 1.60112C70.7772 1.31451 70.3055 1.11048 69.8084 0.99985C69.1972 0.861256 68.572 0.795094 67.9454 0.802714C67.5331 0.804084 67.1214 0.833834 66.7132 0.891756C66.2908 0.949684 65.8726 1.03531 65.4614 1.14805C65.0656 1.25513 64.6823 1.40381 64.3179 1.59162L64.5939 3.14904C64.8828 3.03076 65.1621 2.92878 65.4318 2.84313C65.7014 2.75749 65.961 2.68848 66.2105 2.63613C66.46 2.584 66.7031 2.54468 66.9399 2.51817C67.169 2.49231 67.3993 2.47914 67.6299 2.47874C68.047 2.47195 68.4635 2.51151 68.8719 2.5967C69.1679 2.65635 69.4492 2.7737 69.6999 2.94204C69.9042 3.08601 70.0646 3.2838 70.1632 3.51343C70.2673 3.77334 70.3176 4.05167 70.3111 4.33157C70.3167 4.71621 70.2251 5.09604 70.0449 5.43589C69.8616 5.77083 69.6056 6.06051 69.2958 6.28363C68.9464 6.53331 68.5561 6.72009 68.1425 6.83561C67.6616 6.97164 67.1636 7.03802 66.6639 7.03274H66.2894L66.0528 8.5708H66.6836C67.2654 8.56276 67.8465 8.61231 68.4185 8.71868C68.8467 8.79529 69.2575 8.94892 69.6309 9.17211C69.9363 9.35814 70.185 9.62396 70.3505 9.94096C70.5153 10.2816 70.5964 10.6567 70.587 11.0351C70.5971 11.4178 70.5231 11.798 70.3702 12.149C70.2235 12.4601 69.9953 12.7257 69.7098 12.9175C69.3682 13.1402 68.9866 13.2942 68.5861 13.3709C68.0572 13.4769 67.5186 13.5264 66.9793 13.5188C66.7822 13.5188 66.588 13.5125 66.3977 13.4994C66.2075 13.4862 66.0065 13.4665 65.7965 13.4399C65.5865 13.4133 65.3657 13.3781 65.1361 13.3318C64.9064 13.2855 64.6531 13.2303 64.3771 13.1639L64.1208 14.8396C64.4097 14.8922 64.689 14.9415 64.9586 14.9875C65.2283 15.0335 65.4944 15.0729 65.757 15.1058C66.0199 15.1382 66.2762 15.1611 66.5259 15.1744C66.7756 15.1878 67.0188 15.1945 67.2553 15.1945C67.8836 15.1994 68.5108 15.1432 69.1282 15.0266C69.6528 14.9289 70.1607 14.7564 70.6364 14.5143C71.0515 14.3034 71.4254 14.0196 71.7403 13.6765C72.0366 13.3468 72.2645 12.9614 72.4106 12.5429C72.5669 12.0828 72.6436 11.5995 72.6373 11.1136C72.6433 10.6509 72.57 10.1906 72.4205 9.75269Z" fill="#FFA90A"/>
</svg>

<svg xmlns="http://www.w3.org/2000/svg" viewBox="0 0 73 16"><path fill="#fff" d="M0 15V1.001h4.593V15H0ZM10.843 3.23 13.484 15H8.457L5.303 1.001h2.82a2.655 2.655 0 0 1 1.764.641c.491.404.829.964.956 1.587ZM14.174 15V1.001h4.594V15h-4.594Zm8.063-8.675a2.737 2.737 0 0 1-1.409-.375 2.778 2.778 0 0 1-1.015-1.015 2.735 2.735 0 0 1-.375-1.41 2.685 2.685 0 0 1 .375-1.4 2.812 2.812 0 0 1 3.824-1.005c.415.244.761.59 1.005 1.005.251.424.38.908.375 1.4.005.495-.125.982-.375 1.41a2.8 2.8 0 0 1-1.005 1.015c-.424.251-.908.38-1.4.375ZM25.727 15V1.001h4.594V15h-4.594Zm10.409-6.349c.013.014.111.175.296.483.184.309.424.703.72 1.183a377.481 377.481 0 0 1 1.862 3.056c.289.48.617 1.023.986 1.627h-5.047l-.858-1.39c-.256-.414-.529-.861-.817-1.34-.29-.48-.576-.947-.858-1.4a71.104 71.104 0 0 1-.73-1.193 21.1 21.1 0 0 0-.424-.69A2.04 2.04 0 0 1 30.932 8c.019-.338.128-.665.315-.947.078-.131.223-.365.433-.7a216.97 216.97 0 0 0 1.598-2.603l.817-1.35.858-1.4H40l-3.904 6.368c-.12.19-.189.407-.197.632.013.235.095.461.236.65h.001Z"/><path fill="#FFA90A" d="M54.836 2.813a3.522 3.522 0 0 0-.917-.956 4.395 4.395 0 0 0-1.33-.63A6.302 6.302 0 0 0 50.813 1h-5.48v13.997h2.07V9.97h3.568c.805.012 1.6-.185 2.306-.572A4.263 4.263 0 0 0 54.905 7.8c.415-.74.623-1.577.6-2.425a5.749 5.749 0 0 0-.157-1.36 3.92 3.92 0 0 0-.512-1.203Zm-1.834 4.249a2.333 2.333 0 0 1-1.114.917c-.556.21-1.15.31-1.744.295h-2.74V2.715h3.016a3.75 3.75 0 0 1 1.675.326c.419.202.761.534.976.946.228.462.34.973.326 1.488a2.914 2.914 0 0 1-.395 1.587ZM59.715 1.463c-.283.151-.559.293-.828.424-.27.131-.542.263-.819.394-.275.132-.558.25-.847.355-.29.105-.598.21-.926.316l.433 1.675c.394-.118.752-.236 1.074-.355.316-.115.625-.247.927-.394.296-.144.592-.302.887-.473l.01-.006v11.599h2.05V1h-1.064a32.19 32.19 0 0 0-.897.463ZM72.42 9.753a3.106 3.106 0 0 0-.63-1.065 3.07 3.07 0 0 0-1.035-.729 4.978 4.978 0 0 0-1.41-.375v-.059a4.88 4.88 0 0 0 1.617-.877c.426-.35.778-.783 1.035-1.272.242-.469.367-.99.364-1.518a2.734 2.734 0 0 0-.295-1.291 2.752 2.752 0 0 0-.868-.966A4.023 4.023 0 0 0 69.808 1a7.985 7.985 0 0 0-1.863-.197 9.739 9.739 0 0 0-2.484.345c-.395.107-.779.256-1.143.444l.276 1.557c.289-.118.568-.22.838-.306a8.012 8.012 0 0 1 1.508-.325c.229-.026.46-.039.69-.04.417-.006.834.034 1.242.119a2.3 2.3 0 0 1 .828.345c.204.144.365.342.463.571.104.26.155.539.148.819.006.384-.086.764-.266 1.104-.183.335-.44.625-.75.848-.349.25-.739.436-1.153.552a5.23 5.23 0 0 1-1.478.197h-.375l-.236 1.538h.63a8.822 8.822 0 0 1 1.735.148c.429.076.84.23 1.213.453.305.186.554.452.72.769.164.34.245.716.236 1.094.01.383-.064.763-.217 1.114a1.904 1.904 0 0 1-.66.769 3.138 3.138 0 0 1-1.124.453 7.63 7.63 0 0 1-1.607.148c-.197 0-.391-.007-.581-.02-.19-.013-.391-.033-.602-.06a9.169 9.169 0 0 1-.66-.107 20.88 20.88 0 0 1-.759-.168l-.256 1.676.838.148c.27.046.535.085.798.118.263.032.52.055.769.068.25.014.493.02.73.02a9.685 9.685 0 0 0 1.872-.167 5.576 5.576 0 0 0 1.508-.513 3.89 3.89 0 0 0 1.104-.837c.297-.33.525-.716.67-1.134.157-.46.234-.943.227-1.43a4.05 4.05 0 0 0-.216-1.36Z"/></svg>
